src/pos-icons/chair-rolling.svg

<svg height="24" viewBox="0 0 24 24" width="24" xmlns="http://www.w3.org/2000/svg"><path d="m22 10v3h-3v-3zm-20 3h3v-3h-3zm15-8c0-1.1-.9-2-2-2h-6c-1.1 0-2 .9-2 2v8h10zm-10 10h-1v2h5v1l-4 4h2.8l2.2-2.2 2.2 2.2h2.8l-4-4v-1h5v-2z"/></svg>

<?xml version="1.0" encoding="UTF-8"?><!DOCTYPE svg PUBLIC "-//W3C//DTD SVG 1.1//EN" "http://www.w3.org/Graphics/SVG/1.1/DTD/svg11.dtd"><svg xmlns="http://www.w3.org/2000/svg" xmlns:xlink="http://www.w3.org/1999/xlink" version="1.1" id="mdi-chair-rolling" width="24" height="24" viewBox="0 0 24 24"><path d="M22 10V13H19V10H22M2 13H5V10H2V13M17 5C17 3.9 16.1 3 15 3H9C7.9 3 7 3.9 7 5V13H17V5M7 15H6V17H11V18L7 22H9.8L12 19.8L14.2 22H17L13 18V17H18V15H7Z" /></svg>
